build/assets/img/svg/icon-sharing-twitter.svg

<svg width="24" height="24" viewBox="0 0 24 24" fill="none" xmlns="http://www.w3.org/2000/svg">
<path opacity="0.7" d="M23.5372 4.36631C22.6709 4.76787 21.7414 5.0402 20.7647 5.16178C21.7619 4.5371 22.5253 3.54627 22.8871 2.36925C21.9517 2.94774 20.9191 3.3678 19.819 3.59551C18.938 2.61237 17.6848 2 16.2949 2C13.6284 2 11.4663 4.26171 11.4663 7.04962C11.4663 7.44501 11.5089 7.8312 11.5913 8.20049C7.57899 7.98967 4.02114 5.97877 1.63991 2.92312C1.22367 3.66781 0.986872 4.53553 0.986872 5.46179C0.986872 7.21424 1.83994 8.76051 3.13426 9.66517C2.34295 9.63749 1.59872 9.40978 0.947181 9.03127V9.09436C0.947181 11.5407 2.61213 13.5824 4.81979 14.0471C4.41531 14.1609 3.98879 14.224 3.54755 14.224C3.23575 14.224 2.93423 14.1917 2.63859 14.1301C3.25337 16.138 5.03601 17.5981 7.14809 17.6381C5.49637 18.9921 3.41371 19.7967 1.15163 19.7967C0.761883 19.7967 0.37798 19.7721 0 19.7275C2.13708 21.163 4.67422 22 7.40108 22C16.2832 22 21.1384 14.304 21.1384 7.62968L21.1222 6.97579C22.0708 6.26799 22.8915 5.37871 23.5372 4.36631Z" fill="black"/>
</svg>

<svg width="24" height="24" fill="none" xmlns="http://www.w3.org/2000/svg"><path opacity=".7" d="M23.537 4.366a9.313 9.313 0 01-2.772.796 5.038 5.038 0 002.122-2.793 9.479 9.479 0 01-3.068 1.227C18.938 2.612 17.685 2 16.295 2c-2.667 0-4.829 2.262-4.829 5.05 0 .395.043.781.125 1.15-4.011-.21-7.57-2.22-9.951-5.277a5.19 5.19 0 00-.653 2.539c0 1.752.853 3.299 2.147 4.203a4.668 4.668 0 01-2.187-.634v.063c0 2.447 1.665 4.488 3.873 4.953a4.69 4.69 0 01-1.272.177c-.312 0-.614-.032-.91-.094.615 2.008 2.398 3.468 4.51 3.508A9.42 9.42 0 010 19.728 13.216 13.216 0 007.401 22c8.882 0 13.737-7.696 13.737-14.37l-.016-.654a9.898 9.898 0 002.415-2.61z" fill="#000"/></svg>
